src/home/img/instant-hosting.svg

<svg height="450" viewBox="0 0 450 450" width="450" xmlns="http://www.w3.org/2000/svg"><g fill="#000" fill-rule="nonzero"><g transform="translate(131 181)"><path d="m218 196.903226v14.064516c0 3.883809-3.05006 7.032258-6.8125 7.032258h-204.375c-3.76243986 0-6.8125-3.148449-6.8125-7.032258v-14.064516c0-3.883809 3.05006014-7.032258 6.8125-7.032258h204.375c3.76244 0 6.8125 3.148449 6.8125 7.032258z" opacity=".4"/><path d="m101.308468 176.685484h88.5625l-36.791758-85.6372456c-2.628983-6.1191671-2.915327-12.9879689-.804727-19.3037386l23.971485-71.7444998-79.8680471 45.5262428c-10.0688047 5.7461366-18.0369659 14.5470953-22.7452344 25.1224673l-47.2617188 106.0367739h61.3125l-6.8125-13.591191-27.25-13.591191 27.25-13.591191 13.625-27.182382 13.6250003 27.182382 27.25 13.591191-27.25 13.591191zm20.4375-95.1383376-6.8125 13.5911911-6.8125-13.5911911-13.6250003-6.7955955 13.6250003-6.7955956 6.8125-13.591191 6.8125 13.591191 13.625 6.7955956z"/></g><g transform="translate(60 37)"><path d="m117.309942 51.4035088v-6.5497076l-9.274854 10.2923976h5.532163c2.067031 0 3.742691-1.6756594 3.742691-3.74269zm-67.3684215 22.4561403v8.6245614l13.7076023-12.3672514h-9.9649123c-2.0670306 0-3.74269 1.6756594-3.74269 3.74269zm-24.9918129-61.1508772-6.2362573-12.47485377-6.2362573 12.47719297-12.477193 6.2362573 12.477193 6.2385965 6.2362573 12.4748538 6.2362573-12.4748538 12.477193-6.2385965zm122.3391814 87.3684211-6.236257-12.4748538-6.236258 12.4748538-12.477193 6.238596 12.477193 6.238597 6.236258 12.474854 6.236257-12.474854 12.477193-6.238597zm-74.8912282-89.8432749-3.74269 7.4853801-7.4853802 3.7426901 7.4853802 3.7426901 3.74269 7.4853801 3.7426901-7.4853801 7.4853801-3.7426901-7.4853801-3.7426901z" opacity=".4"/><path d="m138.8 21.0362573-96.0725146 106.4935677c-2.7720665 3.060353-7.4987626 3.297944-10.5637427.530994-.0935673-.084211-.1847953-.170761-.2736842-.259649l-9.6982456-9.691228c-2.922469-2.923094-2.922469-7.661702 0-10.584796.0888889-.088889.1801169-.175438.271345-.259649l106.4935671-96.0701754c1.477236-1.33092083 3.737313-1.27441888 5.146199.128655l4.556725 4.554386c1.413818 1.4071806 1.475552 3.6759109.140351 5.1578947z"/></g></g></svg>

<svg xmlns="http://www.w3.org/2000/svg" width="450" height="450" viewBox="0 0 450 450">
  <g fill="none" fill-rule="evenodd">
    <g fill="#000" fill-rule="nonzero" transform="translate(131 181)">
      <path d="M218,196.903226 L218,210.967742 C218,214.851551 214.94994,218 211.1875,218 L6.8125,218 C3.05006014,218 0,214.851551 0,210.967742 L0,196.903226 C0,193.019417 3.05006014,189.870968 6.8125,189.870968 L211.1875,189.870968 C214.94994,189.870968 218,193.019417 218,196.903226 Z" opacity=".4"/>
      <path d="M101.308468,176.685484 L189.870968,176.685484 L153.07921,91.0482384 C150.450227,84.9290713 150.163883,78.0602695 152.274483,71.7444998 L176.245968,0 L96.3779209,45.5262428 C86.3091162,51.2723794 78.340955,60.0733381 73.6326865,70.6487101 L26.3709677,176.685484 L87.6834677,176.685484 L80.8709677,163.094293 L53.6209677,149.503102 L80.8709677,135.911911 L94.4959677,108.729529 L108.120968,135.911911 L135.370968,149.503102 L108.120968,163.094293 L101.308468,176.685484 Z M121.745968,81.5471464 L114.933468,95.1383375 L108.120968,81.5471464 L94.4959677,74.7515509 L108.120968,67.9559553 L114.933468,54.3647643 L121.745968,67.9559553 L135.370968,74.7515509 L121.745968,81.5471464 Z"/>
    </g>
    <g fill="#000" fill-rule="nonzero" transform="translate(60 37)">
      <path d="M117.309942,51.4035088 L117.309942,44.8538012 L108.035088,55.1461988 L113.567251,55.1461988 C115.634282,55.1461988 117.309942,53.4705394 117.309942,51.4035088 Z M49.9415205,73.8596491 L49.9415205,82.4842105 L63.6491228,70.1169591 L53.6842105,70.1169591 C51.6171799,70.1169591 49.9415205,71.7926185 49.9415205,73.8596491 Z M24.9497076,12.7087719 L18.7134503,0.233918129 L12.477193,12.7111111 L1.8189894e-12,18.9473684 L12.477193,25.1859649 L18.7134503,37.6608187 L24.9497076,25.1859649 L37.4269006,18.9473684 L24.9497076,12.7087719 Z M147.288889,100.077193 L141.052632,87.6023392 L134.816374,100.077193 L122.339181,106.315789 L134.816374,112.554386 L141.052632,125.02924 L147.288889,112.554386 L159.766082,106.315789 L147.288889,100.077193 Z M72.3976608,10.2339181 L68.6549708,17.7192982 L61.1695906,21.4619883 L68.6549708,25.2046784 L72.3976608,32.6900585 L76.1403509,25.2046784 L83.625731,21.4619883 L76.1403509,17.7192982 L72.3976608,10.2339181 Z" opacity=".4"/>
      <path d="M138.8,21.0362573 L42.7274854,127.529825 C39.9554189,130.590178 35.2287228,130.827769 32.1637427,128.060819 C32.0701754,127.976608 31.9789474,127.890058 31.8900585,127.80117 L22.1918129,118.109942 C19.2693439,115.186848 19.2693439,110.44824 22.1918129,107.525146 C22.2807018,107.436257 22.3719298,107.349708 22.4631579,107.265497 L128.956725,11.1953216 C130.433961,9.86440077 132.694038,9.92090272 134.102924,11.3239766 L138.659649,15.8783626 C140.073467,17.2855432 140.135201,19.5542735 138.8,21.0362573 Z"/>
    </g>
  </g>
</svg>
